images/arrow.svg

<svg height="13" viewBox="0 0 37 13" width="37" xmlns="http://www.w3.org/2000/svg"><path d="m257.383554 12.4263521-12-6.05262497v12.10524997zm-35.245033.810525h24.055558.810525v-1.62105h-.810525-24.055558-.810525v1.62105z" fill="#292964" transform="translate(-221.211921 -6.149597)"/></svg>

<?xml version="1.0" encoding="UTF-8"?>
<svg width="37px" height="13px" viewBox="0 0 37 13" version="1.1" xmlns="http://www.w3.org/2000/svg" xmlns:xlink="http://www.w3.org/1999/xlink">
    <!-- Generator: Sketch 51.1 (57501) - http://www.bohemiancoding.com/sketch -->
    <title>Line</title>
    <desc>Created with Sketch.</desc>
    <defs></defs>
    <g id="Desktop-Mockups" stroke="none" stroke-width="1" fill="none" fill-rule="evenodd">
        <g id="Home-Page" transform="translate(-639.000000, -1709.000000)" fill="#292964" fill-rule="nonzero">
            <g id="Product-Categories-Section" transform="translate(135.000000, 900.000000)">
                <g id="Women">
                    <g id="Women's-GI" transform="translate(36.497792, 196.786860)">
                        <g id="Text-Link" transform="translate(246.290287, 606.063543)">
                            <path id="Line" d="M257.383554,12.4263521 L245.383554,6.37372713 L245.383554,18.4789771 L257.383554,12.4263521 Z M222.138521,13.2368771 L246.194079,13.2368771 L247.004604,13.2368771 L247.004604,11.6158271 L246.194079,11.6158271 L222.138521,11.6158271 L221.327996,11.6158271 L221.327996,13.2368771 L222.138521,13.2368771 Z"></path>
                        </g>
                    </g>
                </g>
            </g>
        </g>
    </g>
</svg>
